images/yoast_seo_premium.svg

<?xml version="1.0" encoding="UTF-8"?>
<svg width="235px" height="123px" viewBox="0 0 235 123" version="1.1" xmlns="http://www.w3.org/2000/svg" xmlns:xlink="http://www.w3.org/1999/xlink">
    <title>Product Images/Yoast_SEO</title>
    <g id="Page-1" stroke="none" stroke-width="1" fill="none" fill-rule="evenodd">
        <g id="Product-Images/Yoast_SEO" fill-rule="nonzero">
            <g id="WordPress-plugins-by-Yoast-0" transform="translate(0.000000, -0.000000)">
                <polygon id="Path" fill="#A4286A" points="0 0 146.468269 0 146.468269 122.923077 0 122.923077"></polygon>
                <polygon id="Path" fill="#6C2548" points="142.536538 0 72.85 122.923077 235 122.923077 235 0"></polygon>
                <path d="M54.4567308,81.4365385 L54.4567308,89.9326923 C59.6990385,89.7067308 63.8115385,87.9894231 67.2913462,84.4644231 C70.7711538,80.9394231 73.9346154,75.2451923 77.0076923,66.7490385 L99.5134615,6.50769231 L88.5769231,6.50769231 L70.4548077,56.8067308 L61.4615385,28.6067308 L51.5192308,28.6067308 L64.7605769,62.5461538 C66.0259615,65.8 66.0259615,69.4153846 64.7605769,72.7144231 C63.3596154,76.1490385 60.9644231,80.2163462 54.4567308,81.4365385 Z" id="Path" fill="#FFFFFF"></path>
                <path d="M137.520192,8.72211538 L114.246154,49.8923077 C125.453846,56.5807692 140.005769,52.9201923 146.694231,41.7125 C153.382692,30.5048077 149.722115,15.9528846 138.514423,9.26442308 C138.424038,9.21923077 138.288462,9.12884615 138.198077,9.08365385 L137.520192,8.72211538 Z" id="Path" fill="#77B227"></path>
                <path d="M105.252885,17.6701923 C98.8355769,29.0134615 102.857692,43.4298077 114.200962,49.8471154 L137.475,8.67692308 C126.131731,2.25961538 111.715385,6.23653846 105.298077,17.5798077 L105.252885,17.6701923 L105.252885,17.6701923 Z" id="Path" fill="#9FDA4F"></path>
                <path d="M107.919231,60.8288462 L92.6894231,87.7634615 C100.055769,92.0567308 109.546154,89.6163462 113.839423,82.25 C118.132692,74.8836538 115.692308,65.3932692 108.325962,61.1 C108.235577,61.0548077 108.190385,61.0096154 108.1,60.9644231 L107.919231,60.8288462 L107.919231,60.8288462 Z" id="Path" fill="#F49A00"></path>
                <path d="M107.964423,60.9192308 C100.552885,56.6711538 91.1076923,59.2471154 86.8596154,66.6586538 C82.6115385,74.0701923 85.1875,83.5153846 92.5990385,87.7634615 L92.6894231,87.8086538 L107.964423,60.9192308 L107.964423,60.9192308 Z" id="Path" fill="#FEC228"></path>
                <path d="M85.6846154,100.236538 L76.5557692,116.415385 C81.1201923,118.765385 86.7240385,116.957692 89.0288462,112.393269 C91.2432692,108.1 89.7519231,102.8125 85.6846154,100.236538 Z" id="Path" fill="#ED261F"></path>
                <path d="M85.6846154,100.281731 C81.3913462,97.4798077 75.6519231,98.7 72.85,103.038462 C70.0480769,107.376923 71.2682692,113.071154 75.6067308,115.873077 L75.7875,115.963462 C76.0586538,116.144231 76.3298077,116.279808 76.6009615,116.415385 L85.6846154,100.281731 L85.6846154,100.281731 Z" id="Path" fill="#FF4E47"></path>
            </g>
        </g>
    </g>
</svg>

<svg width="235" height="123" xmlns="http://www.w3.org/2000/svg" role="img" aria-hidden="true" focusable="false"><g fill="none"><path fill="#A4286A" d="M0 0h146.468v122.923H0z"/><path fill="#6C2548" d="M142.537 0L72.85 122.923H235V0z"/><path d="M54.457 81.437v8.496c5.242-.226 9.355-1.944 12.834-5.469 3.48-3.525 6.644-9.219 9.717-17.715L99.513 6.508H88.577L70.455 56.807l-8.993-28.2h-9.943l13.242 33.94c1.265 3.253 1.265 6.868 0 10.167-1.401 3.435-3.797 7.502-10.304 8.723z" fill="#FFF"/><path d="M137.52 8.722l-23.274 41.17c11.208 6.689 25.76 3.028 32.448-8.18 6.689-11.207 3.028-25.76-8.18-32.448-.09-.045-.226-.135-.316-.18l-.678-.362z" fill="#77B227"/><path d="M105.253 17.67c-6.417 11.343-2.395 25.76 8.948 32.177l23.274-41.17c-11.343-6.417-25.76-2.44-32.177 8.903l-.045.09z" fill="#9FDA4F"/><path d="M107.92 60.829L92.69 87.763c7.366 4.294 16.856 1.853 21.15-5.513 4.293-7.366 1.852-16.857-5.514-21.15-.09-.045-.136-.09-.226-.136l-.18-.135z" fill="#F49A00"/><path d="M107.964 60.92c-7.411-4.249-16.856-1.673-21.104 5.739-4.248 7.411-1.672 16.856 5.739 21.104l.09.046 15.275-26.89z" fill="#FEC228"/><path d="M85.685 100.237l-9.13 16.178c4.565 2.35 10.169.543 12.474-4.022 2.214-4.293.723-9.58-3.344-12.156z" fill="#ED261F"/><path d="M85.685 100.282C81.39 97.48 75.652 98.7 72.85 103.038a9.234 9.234 0 0 0 2.757 12.835l.18.09c.272.181.543.317.814.452l9.084-16.133z" fill="#FF4E47"/></g></svg>
